X: 2104
T: ABERLOUR'S SQUEEZE
C:
Q: "Strathspey."
R: Strathspey.
%R: strathspey
B: James Kerr "Merry Melodies" v.2 p.13 #104
Z: 2016 John Chambers <jc:trillian.mit.edu>
M: C
L: 1/8
%%slurgraces yes
%%graceslurs yes
K: C
uG |\
vc2 uc>ue d>B c2 | (G<c) uc>ue vd>ve uf>ug |\
(e<c) uc>ue e/d/c/B/ (c<A) | (A<c) G>E D>EF ::\
(ue/f/) |\
vg>vcue>uc vg>vce2 |
vg>vcue>ug a>df>a |\
[1 g<ce<g c<ge>ug | {AB}vc>uAG<E D>EF :|\
[2 (3efg (3def (3edc (3dcB | (3ABc (3GFE D>EF |]

%%sep 1 1 500
%%sep 1 1 500

